X:2104
T:Drömde mik en dröm i nat / Nunnans dröm
T:(tolkning Adolf Lindgren, 1888)
R:Visa
O:Lund, Skåne
S:[[De Svenska Landsmålen ock Svenskt Folklif]] VI, artikel "Nunnans dröm" av Adolf Lindgren
Z:Åke Persson, 2011-09-26
M:C
L:1/4
K:C
F | F A G A | F E D z/F/ | A A/ A/ A F | D2 z z |
w:|Dröm-de mig en|dröm i natt om|sil-ke ock är-lig|päll|
F A G A | A E A>E | F D F A | E2 z z |
w:Bär-gad fick till|sist sin skatt min|rid-da-re så|snäll  Men|
(:musicend:)
Musikhistorikern [[http://runeberg.org/nfbp/0338.html|Adolf Lindgren]] menar att danskarna föredrar tvåtakt och att därför melodin sannolikt ska indelas så. Han förbinder melodin med den vistext i Berggreens "Danske folksange" som han kallar "Nunnans dröm". Vistexten är emellertid skriven som en "tänkt fortsättning" på visan av professor [[http://sv.wikipedia.org/wiki/Frits_L%C3%A4ffler|L. Fr. Läffler]] någon gång före 1888. Ligaturerna i originalet har här bara blivit till två toner (paren "sist-sin" och "rid-da-"), den översta och den nedersta. Vid denna tid var det omdiskuterat hur ligaturer i koralnotskrift skulle tolkas.

->Drömde mik en dröm i natt 
->om silke ock ärlig päll. 
->Bärgad fick till sist sin skatt 
->min riddare båld och snäll. 
->Men hvar — hvar skall han finna fred? 

->Bröt ur klostret mik med makt 
->ock satte på gångarn sin. 
->Så med fröjd ock riddarprakt 
->vi redo i borgen in. 
->Men hvar — hvar skall han finna fred? 

Brylluppet staar med Fryd og Gammen, og hun sover 
paa sin Herres Arm : 

->Vaknar så på klosterbädd 
->ock ligger allen ock kall. 
->Med alls intet är jag klädd 
->ock bröllopets fröjd är all. 
->Men hvar — hvar skall jag finna fred? 

----

(:music:)
